!!!!SEGMENT: pl-sa--l-1636--105_anonim--gdy-cie-na-krzyzu-widze.krn
!!!cenid: 17xx:812
!!!COM: Anonim
!!!COM-rismID: pe30004985
!!!CDT:
!!!CNT:
!!!OTL: Gdy cię na krzyżu widzę
!!!PDT:
!!!AGN: Sacred
!!!YEC: Copyright 2022 Narodowy Instytut Fryderyka Chopina (https://polishscores.org)
!!!YEM: License CC-BY-4.0 (https://creativecommons.org/licenses/by/4.0)
!!!SMS-siglum: PL-SA
!!!SMS-shelfmark: L 1636
!!!SMS-shelfwork: 105 W
!!!SMS-variant:
!!!SMS-altvar:
!!!NIFC-rismSourceID: 1001087542
!!!NIFC-rismChildID: 1001087542
!!!NIFC-islandoraID:
!!!URL-pdf-islandora:
!!!URL-scan:
!!!IIIF:
!!!ONB-nifc: 53r, skan 0044, s. 6-8
!!!AIN: 2 empty
!!!key:
**kern	**kern
*part2	*part1
*staff2	*staff1
*Iempty	*Iempty
*I"	*I"
*I'keyb	*I'keyb
*clefF4	*clefC1
*k[]	*k[]
*a:	*a:
*M2/2	*M2/2
*met(c|)	*met(c|)
=1	=1
*	*^
*2\right	*2\right	*2\right
!	!LO:TX:i:b:t=Gdy cię na Krzyzu	!
!LO:TX:a:t=P:problem=caudy z prawej strony	!LO:TX:a:t=P:problem=caudy z prawej strony	!
2AA/	2cc/	2a\
4AA/	4cc/	4a\
4E\	4b/	4g\
=2	=2	=2
4F\	4.a/	2f\
4D\	.	.
.	8b/	.
2E\	2g#X/ 2e/	2ryy
=3	=3	=3
4A\	4.cc/	4.a\
4AA/	.	.
!	!LO:N:vis=4	!
.	8cc/	8a\
8G\L	4dd/	4b\
8F\	.	.
8E\	8ee/L	[<4cc\
8C\J	8ff/J	.
!!LO:LB:g=original
=4	=4	=4
*^	*	*
*	*	*	*^
!LO:TX:a:t=P:problem=mixed beam	!	!	!	!
8F\L	2ryy	2dd/	4ryy	8cc\L]
8D\	.	.	.	16b\L
.	.	.	.	16a\JJ
8G\	.	.	4b/	8g\L
8GG/J	.	.	.	8f\J
2C/	2CC/	2cc/ 2g/ 2e/	2ryy	2ryy
*v	*v	*	*	*
*	*	*v	*v
=5:|!|:	=5:|!|:	=5:|!|:
2E\	2b/	2g\
4F#X\	8a/L	4f#X\
.	8b/J	.
8G\L	4g/	(<4e\
8A\J	.	.
=6	=6	=6
*	*	*^
4B\	2f#X/	8e#\L)	2ryy
.	.	16d#X\L	.
.	.	16c#X\JJ	.
4BB/	.	4d#X\	.
!	!LO:TX:a:t=P:problem=kreska przed akordem	!	!
2E\	2g#X/ 2e#/ 2B/	2ryy	2ryy
*	*	*v	*v
=7	=7	=7
!	!LO:TX:a:t=P:problem=# above	!
2E\	2g#/	2e\
4D/	4a/	4f#\
!LO:TX:a:t=6	!	!
4BB/	4b/	4g#X\
=8	=8	=8
8AA/L	2cc/	2a\
8BB/	.	.
8C/	.	.
8D/J	.	.
2E\	2b/	2g#X\
=9	=9	=9
8C/L	4ee/	4cc\
8D/J	.	.
8E\L	8ee/L	4cc\
8F\J	16ff/L	.
.	16ee/JJ	.
!LO:TX:a:t=P:problem=mixed beam	!	!
8G\L	2dd/	2b\
16GG/L	.	.
16AA/JJ	.	.
8BB/L	.	.
8GG#X/J	.	.
!!LO:LB:g=original
=10	=10	=10
!LO:TX:a:t=P:problem=mixed beam	!	!
8A\L	4cc/	4a\
16AA/L	.	.
16BB/JJ	.	.
8C/L	8cc/L	4a\
8D/J	16dd/L	.
.	16cc/JJ	.
4E\	2b/	2g#X/
4EE/	.	.
*	*v	*v
=11	=11
*	*^
4r	4r	4ryy
!LO:TX:a:t=P:problem=mixed beam	!	!
8E\L	4b/	4g#\
8EE/J	.	.
4r	4r	4r
!LO:TX:a:t=P:problem=mixed beam	!	!
8A\L	4cc/	4a\
8AA/J	.	.
*	*v	*v
=12	=12
*	*^
4r	4r	4ryy
8G\L	4dd/	4b\
8F\J	.	.
8.E\L	2ee/	2cc\
16D\Jk	.	.
16C\LL	.	.
16D\	.	.
16E\	.	.
16C\JJ	.	.
=13	=13	=13
8F\L	4ff/	8a\L
8G\J	.	8b\J
16A\LL	4ee/	4cc\
16E\	.	.
16F\	.	.
16D\JJ	.	.
!	!LO:N:vis=2	!
4G\	4dd/	8cc\L
.	.	16b\L
.	.	16a\JJ
4GG/	4b/	8g\L
.	.	8f\J
=14	=14	=14
2C/	2cc/	2g 2e/
2C/	2ee/	2cc/
=15	=15	=15
!	!	!LO:TX:a:t=P:problem=# above
8D\L	4dd/	8f#X\L
!	!	!LO:TX:a:t=P:problem=# above
8E\	.	8g#X\J
8F\	4cc/	4a\
8D\J	.	.
!	!LO:N:vis=2	!
4E\	4b/	8a\L
.	.	16g#\L
.	.	16f#\JJ
4EE/	4g#/	8e\L
.	.	8d\J
*	*v	*v
=16	=16
!	!LO:SIC:o=1a 1e 1c
1A 1E 1#C 1AA	1a 1c# 1e
==	==
*-	*-
!!!system-decoration: s1,s2
!!!RDF**kern: > = above
!!!RDF**kern: < = below
!!!EED: Mateusz Mrugas
!!!EEV: 2020-12-10
!!!ENC: Berenika Jozajtis
!!!END: 2020-06-13
